X: 7
T:Brighton Camp (Bampton)
M:2/2
L:1/8
O:England; Oxfordshire; Bampton.
B:Lionel Bacon, A Handbook of Morris Dances
Z:http://www.themorrisring.org/music/handbook-morris-dances
P:A(AB2)4
K:G
P:A
D2|G2Bc d2ef    |g2dc BAG2|Bcd2 e2f2   |g4 f2ag|
    e2dc (3BcBA2|B2G2 E3 G|FGAF D2(3DEF|G4 G2  ||
P:B
Bc|d2B2   dcAB |c2E2 GFD2|G3 F GABc   |dedc B2gf|
   e2dc (3BcBA2|B2G2 E3 G|FGAF D2(3DEF|G4 G2    ||

